.local/share/icons/Gruvbox-Plus-Dark/panel/24/cantata-panel.svg

<svg xmlns="http://www.w3.org/2000/svg" width="24" height="24" version="1.1">
 <defs>
  <style id="current-color-scheme" type="text/css">
   .ColorScheme-Text { color:#ebdbb2; } .ColorScheme-Highlight { color:#458588; }
  </style>
 </defs>
 <path style="fill:currentColor" class="ColorScheme-Text" d="M 11.810547,3.9808219 A 8,8 0 0 0 3.9999999,12.023791 8.0000004,8.0000004 0 0 0 20,12.023791 8,8 0 0 0 11.810547,3.9808219 Z M 12,5.9788687 c 3.308423,0 6,2.6915772 6,6.0000003 0,3.308423 -2.691577,5.999999 -6,5.999999 -3.3084229,0 -6.0000001,-2.691576 -6.0000001,-5.999999 0,-3.3084231 2.6915772,-6.0000003 6.0000001,-6.0000003 z m 0.400391,1 C 12.000391,6.9788687 12,7.3968375 12,7.3968375 L 12,12.1859 c -0.384502,-0.136042 -0.670523,-0.206361 -1.099609,-0.207031 -1.5463969,0 -2.9003909,0.89543 -2.9003909,1.999999 0,1.10457 1.453603,2 2.9999999,2 1.546398,0 3.000001,-0.89543 3.000001,-2 l 0,-4.9999993 c 0,0 2.26729,1.1586683 1.324218,2.0234383 -0.259008,0.14857 -0.344328,0.378196 -0.298828,0.578125 0.06909,0.303608 0.439979,0.538683 0.953125,0.320312 C 16.749531,11.498755 17,10.778088 17,10.178088 17,8.3780875 14.000392,6.9788687 12.400391,6.9788687 Z"/>
</svg>

<svg width="24" height="24" version="1.1" xmlns="http://www.w3.org/2000/svg">
  <defs>
    <style id="current-color-scheme" type="text/css">.ColorScheme-Text { color:#ebdbb2; } .ColorScheme-Highlight { color:#458588; } .ColorScheme-NeutralText { color:#fe8019; } .ColorScheme-PositiveText { color:#689d6a; } .ColorScheme-NegativeText { color:#fb4934; }</style>
  </defs>
  <path class="ColorScheme-Text" d="m11.81 3.981a8 8 0 0 0-7.811 8.043 8 8 0 0 0 16 0 8 8 0 0 0-8.189-8.043zm0.1895 1.998c3.308 0 6 2.692 6 6 0 3.308-2.692 6-6 6-3.308 0-6-2.692-6-6 0-3.308 2.692-6 6-6zm0.4004 1c-0.4 0-0.4004 0.418-0.4004 0.418v4.789c-0.3845-0.136-0.6705-0.2064-1.1-0.207-1.546 0-2.9 0.8954-2.9 2 0 1.105 1.454 2 3 2 1.546 0 3-0.8954 3-2v-5s2.267 1.159 1.324 2.023c-0.259 0.1486-0.3443 0.3782-0.2988 0.5781 0.06909 0.3036 0.44 0.5387 0.9531 0.3203 0.771-0.402 1.021-1.123 1.021-1.723 0-1.8-3-3.199-4.6-3.199z" fill="currentColor"/>
</svg>
